public/assets/svgs/steam/black.svg

<svg xmlns="http://www.w3.org/2000/svg" fill="none" viewBox="0 0 32768 32768"><g clip-path="url(#a)"><path fill="#000" fill-rule="evenodd" d="M22.118 15985.9L7216.9 18920.6c899.87-516.7 1942.98-812.2 3055.1-812.2 195.3 0 388.4 9.2 579 27l5199.4-7401.6v-5.2c0-2308.07 935.7-4397.72 2448.4-5910.42 1512.7-1512.7 3602.3-2448.36 5910.4-2448.36 2308.1 0 4397.7 935.66 5910.4 2448.36 1512.7 1512.7 2448.4 3602.45 2448.4 5910.42 0 2308.1-935.7 4397.7-2448.4 5910.4-1512.7 1512.8-3602.3 2448.4-5910.4 2448.4-29.4 0-58.7-.3-88-.6l-7938.3 5814.7c-150.8 1437.9-797.5 2728.3-1766 3696.8-1112 1112-2648.2 1799.9-4345 1799.9-1696.83 0-3232.93-687.9-4345.05-1799.9-811.69-811.7-1397.39-1849.4-1654.55-3010.6L-.098 23878.7l22.118-7892.8h.098zm9372.412 3823l1903.87 776.5c3934.2 1604.7 2182.3 7909.5-2651.96 6751.8l-2369.63-947.9c211.16 394.1 478.75 753.3 792.24 1066.8 819.56 819.6 1952.02 1326.6 3202.85 1326.6 1250.8 0 2383.3-507 3202.8-1326.6 819.6-819.5 1326.6-1952 1326.6-3202.8 0-1250.8-507-2383.3-1326.6-3202.9-819.5-819.5-1951.9-1326.5-3202.8-1326.5-300.23 0-593.57 29.3-877.37 85.1v-.1zM24379.1 6582.05c2314.2 0 4190.1 1876.03 4190.1 4190.15 0 2314.1-1876 4190.1-4190.1 4190.1-2314.2 0-4190.1-1876-4190.1-4190.1 0-2314.21 1875.9-4190.15 4190.1-4190.15zm3903.6 273.09c-991.2-991.2-2360.8-1604.32-3873.6-1604.32-1512.8 0-2882.3 613.12-3873.6 1604.32-991.2 991.2-1604.3 2360.77-1604.3 3873.56 0 1512.8 613.1 2882.3 1604.3 3873.6 991.2 991.2 2360.8 1604.3 3873.6 1604.3 1512.8 0 2882.4-613.1 3873.6-1604.3 991.2-991.2 1604.3-2360.8 1604.3-3873.6 0-1512.79-613.1-2882.36-1604.3-3873.56z" clip-rule="evenodd"/></g><defs><clipPath id="a"><path fill="#fff" d="M0 0h333333v333333H0z" transform="scale(.0983)"/></clipPath></defs></svg>

<svg width="24px" height="24px" viewBox="0 0 32768 32768" fill="none"
    xmlns="http://www.w3.org/2000/svg">
    <g clip-path="url(#clip0)">
        <path fill-rule="evenodd" clip-rule="evenodd" d="M22.1184 15985.9L7216.9 18920.6C8116.77 18403.9 9159.88 18108.4 10272 18108.4C10467.3 18108.4 10660.4 18117.6 10851 18135.4L16050.4 10733.8V10728.6C16050.4 8420.53 16986.1 6330.88 18498.8 4818.18C20011.5 3305.48 22101.1 2369.82 24409.2 2369.82C26717.3 2369.82 28806.9 3305.48 30319.6 4818.18C31832.3 6330.88 32768 8420.63 32768 10728.6C32768 13036.7 31832.3 15126.3 30319.6 16639C28806.9 18151.8 26717.3 19087.4 24409.2 19087.4C24379.8 19087.4 24350.5 19087.1 24321.2 19086.8L16382.9 24901.5C16232.1 26339.4 15585.4 27629.8 14616.9 28598.3C13504.9 29710.3 11968.7 30398.2 10271.9 30398.2C8575.07 30398.2 7038.97 29710.3 5926.85 28598.3C5115.16 27786.6 4529.46 26748.9 4272.3 25587.7L-0.0983041 23878.7L22.0201 15985.9H22.1184ZM9394.53 19808.9L11298.4 20585.4C15232.6 22190.1 13480.7 28494.9 8646.44 27337.2L6276.81 26389.3C6487.97 26783.4 6755.56 27142.6 7069.05 27456.1C7888.61 28275.7 9021.07 28782.7 10271.9 28782.7C11522.7 28782.7 12655.2 28275.7 13474.7 27456.1C14294.3 26636.6 14801.3 25504.1 14801.3 24253.3C14801.3 23002.5 14294.3 21870 13474.7 21050.4C12655.2 20230.9 11522.8 19723.9 10271.9 19723.9C9971.67 19723.9 9678.33 19753.2 9394.53 19809V19808.9ZM24379.1 6582.05C26693.3 6582.05 28569.2 8458.08 28569.2 10772.2C28569.2 13086.3 26693.2 14962.3 24379.1 14962.3C22064.9 14962.3 20189 13086.3 20189 10772.2C20189 8457.99 22064.9 6582.05 24379.1 6582.05ZM28282.7 6855.14C27291.5 5863.94 25921.9 5250.82 24409.1 5250.82C22896.3 5250.82 21526.8 5863.94 20535.5 6855.14C19544.3 7846.34 18931.2 9215.91 18931.2 10728.7C18931.2 12241.5 19544.3 13611 20535.5 14602.3C21526.7 15593.5 22896.3 16206.6 24409.1 16206.6C25921.9 16206.6 27291.5 15593.5 28282.7 14602.3C29273.9 13611.1 29887 12241.5 29887 10728.7C29887 9215.91 29273.9 7846.34 28282.7 6855.14Z" fill="black"/>
    </g>
    <defs>
        <clipPath id="clip0">
            <rect width="333333" height="333333" fill="white" transform="scale(0.0983041)"/>
        </clipPath>
    </defs>
</svg>
